documentation/public/assets/images/input-03.svg

<svg width="672" height="159" viewBox="0 0 672 159" fill="none" xmlns="http://www.w3.org/2000/svg">
<rect width="672" height="159" fill="#F6F6F6"/>
<rect x="190" y="60.5" width="292" height="39" rx="3.5" fill="white"/>
<path d="M202.909 86V74.3636H209.932V75.6136H204.318V79.5455H209.568V80.7955H204.318V84.75H210.023V86H202.909ZM213.267 86.0909C212.987 86.0909 212.746 85.9905 212.545 85.7898C212.345 85.589 212.244 85.3485 212.244 85.0682C212.244 84.7879 212.345 84.5473 212.545 84.3466C212.746 84.1458 212.987 84.0455 213.267 84.0455C213.547 84.0455 213.788 84.1458 213.989 84.3466C214.189 84.5473 214.29 84.7879 214.29 85.0682C214.29 85.2538 214.242 85.4242 214.148 85.5795C214.057 85.7348 213.934 85.8598 213.778 85.9545C213.627 86.0455 213.456 86.0909 213.267 86.0909ZM220.219 89.4545C219.571 89.4545 219.014 89.3712 218.548 89.2045C218.082 89.0417 217.694 88.8258 217.384 88.5568C217.077 88.2917 216.832 88.0076 216.651 87.7045L217.719 86.9545C217.84 87.1136 217.993 87.2955 218.179 87.5C218.365 87.7083 218.618 87.8883 218.94 88.0398C219.266 88.1951 219.692 88.2727 220.219 88.2727C220.923 88.2727 221.505 88.1023 221.963 87.7614C222.421 87.4205 222.651 86.8864 222.651 86.1591V84.3864H222.537C222.438 84.5455 222.298 84.7424 222.116 84.9773C221.938 85.2083 221.681 85.4148 221.344 85.5966C221.01 85.7746 220.56 85.8636 219.991 85.8636C219.287 85.8636 218.654 85.697 218.094 85.3636C217.537 85.0303 217.096 84.5455 216.77 83.9091C216.448 83.2727 216.287 82.5 216.287 81.5909C216.287 80.697 216.444 79.9186 216.759 79.2557C217.073 78.589 217.51 78.0739 218.071 77.7102C218.632 77.3428 219.279 77.1591 220.014 77.1591C220.582 77.1591 221.033 77.2538 221.366 77.4432C221.704 77.6288 221.961 77.8409 222.139 78.0795C222.321 78.3144 222.461 78.5076 222.56 78.6591H222.696V77.2727H223.991V86.25C223.991 87 223.821 87.6098 223.48 88.0795C223.143 88.553 222.688 88.8996 222.116 89.1193C221.548 89.3428 220.916 89.4545 220.219 89.4545ZM220.173 84.6591C220.711 84.6591 221.166 84.536 221.537 84.2898C221.908 84.0436 222.19 83.6894 222.384 83.2273C222.577 82.7652 222.673 82.2121 222.673 81.5682C222.673 80.9394 222.579 80.3845 222.389 79.9034C222.2 79.4223 221.92 79.0455 221.548 78.7727C221.177 78.5 220.719 78.3636 220.173 78.3636C219.605 78.3636 219.132 78.5076 218.753 78.7955C218.378 79.0833 218.096 79.4697 217.906 79.9545C217.721 80.4394 217.628 80.9773 217.628 81.5682C217.628 82.1742 217.723 82.7102 217.912 83.1761C218.105 83.6383 218.389 84.0019 218.764 84.267C219.143 84.5284 219.613 84.6591 220.173 84.6591ZM227.423 86.0909C227.143 86.0909 226.902 85.9905 226.702 85.7898C226.501 85.589 226.401 85.3485 226.401 85.0682C226.401 84.7879 226.501 84.5473 226.702 84.3466C226.902 84.1458 227.143 84.0455 227.423 84.0455C227.704 84.0455 227.944 84.1458 228.145 84.3466C228.346 84.5473 228.446 84.7879 228.446 85.0682C228.446 85.2538 228.399 85.4242 228.304 85.5795C228.213 85.7348 228.09 85.8598 227.935 85.9545C227.783 86.0455 227.613 86.0909 227.423 86.0909ZM239.989 74.3636H241.398V82.6818C241.398 83.4242 241.261 84.0549 240.989 84.5739C240.716 85.0928 240.331 85.4867 239.835 85.7557C239.339 86.0246 238.754 86.1591 238.08 86.1591C237.443 86.1591 236.877 86.0436 236.381 85.8125C235.884 85.5777 235.494 85.2443 235.21 84.8125C234.926 84.3807 234.784 83.8674 234.784 83.2727H236.17C236.17 83.6023 236.252 83.8902 236.415 84.1364C236.581 84.3788 236.809 84.5682 237.097 84.7045C237.384 84.8409 237.712 84.9091 238.08 84.9091C238.485 84.9091 238.83 84.8239 239.114 84.6534C239.398 84.483 239.614 84.233 239.761 83.9034C239.913 83.5701 239.989 83.1629 239.989 82.6818V74.3636ZM249.54 82.4318V77.2727H250.881V86H249.54V84.5227H249.449C249.244 84.9659 248.926 85.3428 248.494 85.6534C248.063 85.9602 247.517 86.1136 246.858 86.1136C246.312 86.1136 245.828 85.9943 245.403 85.7557C244.979 85.5133 244.646 85.1496 244.403 84.6648C244.161 84.1761 244.04 83.5606 244.04 82.8182V77.2727H245.381V82.7273C245.381 83.3636 245.559 83.8712 245.915 84.25C246.275 84.6288 246.733 84.8182 247.29 84.8182C247.623 84.8182 247.962 84.733 248.307 84.5625C248.655 84.392 248.947 84.1307 249.182 83.7784C249.42 83.4261 249.54 82.9773 249.54 82.4318ZM254.678 74.3636V86H253.337V74.3636H254.678ZM260.793 86.1818C259.952 86.1818 259.226 85.9962 258.616 85.625C258.01 85.25 257.543 84.7273 257.213 84.0568C256.887 83.3826 256.724 82.5985 256.724 81.7045C256.724 80.8106 256.887 80.0227 257.213 79.3409C257.543 78.6553 258.001 78.1212 258.588 77.7386C259.179 77.3523 259.868 77.1591 260.656 77.1591C261.111 77.1591 261.56 77.2348 262.003 77.3864C262.446 77.5379 262.849 77.7841 263.213 78.125C263.577 78.4621 263.866 78.9091 264.082 79.4659C264.298 80.0227 264.406 80.7083 264.406 81.5227V82.0909H257.679V80.9318H263.043C263.043 80.4394 262.944 80 262.747 79.6136C262.554 79.2273 262.277 78.9223 261.918 78.6989C261.562 78.4754 261.141 78.3636 260.656 78.3636C260.122 78.3636 259.66 78.4962 259.27 78.7614C258.884 79.0227 258.586 79.3636 258.378 79.7841C258.17 80.2045 258.065 80.6553 258.065 81.1364V81.9091C258.065 82.5682 258.179 83.1269 258.406 83.5852C258.637 84.0398 258.957 84.3864 259.366 84.625C259.776 84.8598 260.251 84.9773 260.793 84.9773C261.145 84.9773 261.463 84.928 261.747 84.8295C262.035 84.7273 262.283 84.5758 262.491 84.375C262.7 84.1705 262.861 83.9167 262.974 83.6136L264.27 83.9773C264.134 84.4167 263.904 84.803 263.582 85.1364C263.26 85.4659 262.863 85.7235 262.389 85.9091C261.916 86.0909 261.384 86.1818 260.793 86.1818ZM272.628 79.2273L271.423 79.5682C271.348 79.3674 271.236 79.1723 271.088 78.983C270.944 78.7898 270.747 78.6307 270.497 78.5057C270.247 78.3807 269.927 78.3182 269.537 78.3182C269.003 78.3182 268.558 78.4413 268.202 78.6875C267.849 78.9299 267.673 79.2386 267.673 79.6136C267.673 79.947 267.795 80.2102 268.037 80.4034C268.279 80.5966 268.658 80.7576 269.173 80.8864L270.469 81.2045C271.249 81.3939 271.83 81.6837 272.213 82.0739C272.596 82.4602 272.787 82.9583 272.787 83.5682C272.787 84.0682 272.643 84.5152 272.355 84.9091C272.071 85.303 271.673 85.6136 271.162 85.8409C270.651 86.0682 270.056 86.1818 269.378 86.1818C268.488 86.1818 267.751 85.9886 267.168 85.6023C266.584 85.2159 266.215 84.6515 266.06 83.9091L267.332 83.5909C267.454 84.0606 267.683 84.4129 268.02 84.6477C268.361 84.8826 268.806 85 269.355 85C269.98 85 270.476 84.8674 270.844 84.6023C271.215 84.3333 271.401 84.0114 271.401 83.6364C271.401 83.3333 271.295 83.0795 271.082 82.875C270.87 82.6667 270.545 82.5114 270.105 82.4091L268.651 82.0682C267.851 81.8788 267.264 81.5852 266.889 81.1875C266.518 80.786 266.332 80.2841 266.332 79.6818C266.332 79.1894 266.471 78.7538 266.747 78.375C267.027 77.9962 267.408 77.6989 267.889 77.483C268.374 77.267 268.923 77.1591 269.537 77.1591C270.401 77.1591 271.079 77.3485 271.571 77.7273C272.067 78.1061 272.42 78.6061 272.628 79.2273Z" fill="#757575"/>
<rect x="190" y="60.5" width="292" height="39" rx="3.5" stroke="#545454"/>
<path d="M198.871 37.8182V48H197.231L192.433 41.0646H192.349V48H190.504V37.8182H192.155L196.947 44.7585H197.037V37.8182H198.871ZM202.999 48.1541C202.515 48.1541 202.079 48.0679 201.692 47.8956C201.307 47.7199 201.002 47.4614 200.777 47.12C200.555 46.7786 200.444 46.3577 200.444 45.8572C200.444 45.4264 200.523 45.0701 200.682 44.7884C200.841 44.5066 201.059 44.2812 201.334 44.1122C201.609 43.9432 201.919 43.8156 202.263 43.7294C202.611 43.6399 202.971 43.5753 203.342 43.5355C203.79 43.4891 204.153 43.4477 204.431 43.4112C204.709 43.3714 204.912 43.3118 205.037 43.2322C205.167 43.1494 205.231 43.0218 205.231 42.8494V42.8196C205.231 42.4451 205.12 42.1551 204.898 41.9496C204.676 41.7441 204.356 41.6413 203.939 41.6413C203.498 41.6413 203.148 41.7375 202.89 41.9297C202.635 42.1219 202.462 42.349 202.373 42.6108L200.692 42.3722C200.825 41.9081 201.044 41.5204 201.349 41.2088C201.653 40.8939 202.026 40.6586 202.467 40.5028C202.908 40.3438 203.395 40.2642 203.929 40.2642C204.297 40.2642 204.663 40.3073 205.028 40.3935C205.392 40.4796 205.725 40.6222 206.027 40.821C206.328 41.0166 206.57 41.2834 206.753 41.6214C206.938 41.9595 207.031 42.3821 207.031 42.8892V48H205.301V46.951H205.241C205.132 47.1631 204.978 47.362 204.779 47.5476C204.583 47.7299 204.336 47.8774 204.038 47.9901C203.743 48.0994 203.397 48.1541 202.999 48.1541ZM203.466 46.8317C203.828 46.8317 204.141 46.7604 204.406 46.6179C204.671 46.4721 204.875 46.2798 205.018 46.0412C205.163 45.8026 205.236 45.5424 205.236 45.2607V44.3608C205.18 44.4072 205.084 44.4503 204.948 44.4901C204.815 44.5298 204.666 44.5646 204.501 44.5945C204.335 44.6243 204.171 44.6508 204.008 44.674C203.846 44.6972 203.705 44.7171 203.586 44.7337C203.317 44.7701 203.077 44.8298 202.865 44.9126C202.653 44.9955 202.485 45.1115 202.363 45.2607C202.24 45.4065 202.179 45.5954 202.179 45.8274C202.179 46.1589 202.3 46.4091 202.542 46.5781C202.784 46.7472 203.092 46.8317 203.466 46.8317ZM208.841 48V40.3636H210.561V41.6612H210.65C210.809 41.2237 211.073 40.8823 211.441 40.6371C211.809 40.3885 212.248 40.2642 212.758 40.2642C213.275 40.2642 213.711 40.3902 214.066 40.642C214.424 40.8906 214.676 41.2304 214.822 41.6612H214.901C215.07 41.237 215.355 40.8989 215.756 40.647C216.161 40.3918 216.64 40.2642 217.193 40.2642C217.896 40.2642 218.469 40.4863 218.913 40.9304C219.357 41.3745 219.579 42.0225 219.579 42.8743V48H217.775V43.1527C217.775 42.6787 217.649 42.3324 217.397 42.1136C217.145 41.8916 216.837 41.7805 216.472 41.7805C216.038 41.7805 215.698 41.9164 215.453 42.1882C215.211 42.4567 215.09 42.8063 215.09 43.2372V48H213.325V43.0781C213.325 42.6837 213.206 42.3688 212.967 42.1335C212.732 41.8982 212.424 41.7805 212.042 41.7805C211.784 41.7805 211.549 41.8468 211.336 41.9794C211.124 42.1087 210.955 42.2926 210.829 42.5312C210.703 42.7666 210.64 43.0417 210.64 43.3565V48H208.841ZM224.786 48.1491C224.02 48.1491 223.359 47.9901 222.802 47.6719C222.249 47.3504 221.823 46.8963 221.525 46.3097C221.226 45.7197 221.077 45.0253 221.077 44.2266C221.077 43.4411 221.226 42.7517 221.525 42.1584C221.826 41.5618 222.247 41.0978 222.787 40.7663C223.328 40.4316 223.962 40.2642 224.691 40.2642C225.162 40.2642 225.606 40.3404 226.024 40.4929C226.445 40.642 226.816 40.8741 227.137 41.1889C227.462 41.5038 227.717 41.9048 227.903 42.392C228.089 42.8759 228.181 43.4527 228.181 44.1222V44.674H221.922V43.4609H226.456C226.453 43.1162 226.378 42.8097 226.233 42.5412C226.087 42.2694 225.883 42.0556 225.621 41.8999C225.363 41.7441 225.061 41.6662 224.716 41.6662C224.348 41.6662 224.025 41.7557 223.747 41.9347C223.468 42.1103 223.251 42.3423 223.096 42.6307C222.943 42.9157 222.865 43.2289 222.862 43.5703V44.6293C222.862 45.0734 222.943 45.4545 223.105 45.7727C223.268 46.0876 223.495 46.3295 223.787 46.4986C224.078 46.6643 224.42 46.7472 224.811 46.7472C225.073 46.7472 225.31 46.7107 225.522 46.6378C225.734 46.5616 225.918 46.4505 226.074 46.3047C226.229 46.1589 226.347 45.9782 226.426 45.7628L228.107 45.9517C228.001 46.3958 227.799 46.7836 227.5 47.1151C227.205 47.4432 226.828 47.6984 226.367 47.8807C225.906 48.0597 225.379 48.1491 224.786 48.1491Z" fill="#333333"/>
</svg>

<svg width="672" height="159" fill="none" xmlns="http://www.w3.org/2000/svg"><path fill="#F6F6F6" d="M0 0h672v159H0z"/><rect x="190" y="60.5" width="292" height="39" rx="3.5" fill="#fff"/><path d="M202.9 86V74.36h7.03v1.25h-5.61v3.94h5.25v1.25h-5.25v3.95h5.7V86h-7.11Zm10.37.1a.99.99 0 0 1-.73-.31.99.99 0 0 1-.3-.72c0-.28.1-.52.3-.72a1 1 0 0 1 .73-.3c.28 0 .52.1.72.3.2.2.3.44.3.72a1.06 1.06 0 0 1-.51.89.97.97 0 0 1-.51.13Zm6.95 3.35a4.9 4.9 0 0 1-1.67-.25 3.53 3.53 0 0 1-1.9-1.5l1.07-.75c.12.16.27.35.46.55.19.2.44.39.76.54a3 3 0 0 0 1.28.23c.7 0 1.28-.17 1.74-.5.46-.35.7-.88.7-1.61v-1.77h-.12c-.1.16-.24.35-.42.59-.18.23-.44.43-.78.62-.33.17-.78.26-1.35.26a3.5 3.5 0 0 1-3.22-1.95 5.09 5.09 0 0 1-.48-2.32c0-.9.15-1.67.47-2.33a3.46 3.46 0 0 1 3.26-2.1c.56 0 1.01.1 1.35.28.33.19.6.4.77.64.18.23.32.43.42.58h.14v-1.39h1.3v8.98c0 .75-.18 1.36-.52 1.83s-.8.82-1.36 1.04c-.57.22-1.2.33-1.9.33Zm-.05-4.8c.54 0 1-.11 1.37-.36.37-.25.65-.6.84-1.06.2-.46.3-1.02.3-1.66 0-.63-.1-1.19-.3-1.67a2.49 2.49 0 0 0-.83-1.13c-.37-.27-.83-.4-1.38-.4a2.28 2.28 0 0 0-2.26 1.58 4.5 4.5 0 0 0-.28 1.62c0 .6.1 1.14.28 1.6.2.47.48.83.85 1.1.38.26.85.39 1.41.39Zm7.25 1.44a.98.98 0 0 1-.72-.3.98.98 0 0 1-.3-.72c0-.28.1-.52.3-.72a1.02 1.02 0 0 1 1.75.72c0 .18-.05.35-.15.51-.09.15-.21.28-.37.37a.98.98 0 0 1-.5.14ZM240 74.36h1.4v8.32c0 .74-.13 1.37-.4 1.9-.27.51-.66.9-1.16 1.18-.5.26-1.08.4-1.75.4a4 4 0 0 1-1.7-.35 2.8 2.8 0 0 1-1.17-1 2.74 2.74 0 0 1-.43-1.54h1.39a1.5 1.5 0 0 0 .93 1.43c.28.14.61.2.98.2.4 0 .75-.08 1.03-.25.29-.17.5-.42.65-.75.15-.33.23-.74.23-1.22v-8.32Zm9.55 8.07v-5.16h1.34V86h-1.34v-1.48h-.1a2.7 2.7 0 0 1-2.58 1.59c-.55 0-1.03-.12-1.46-.35a2.62 2.62 0 0 1-1-1.1 4.15 4.15 0 0 1-.36-1.84v-5.55h1.34v5.46c0 .63.18 1.14.53 1.52.37.38.82.57 1.38.57a2.28 2.28 0 0 0 2.25-2.39Zm5.14-8.07V86h-1.34V74.36h1.34Zm6.11 11.82a3.74 3.74 0 0 1-3.58-2.13 5.34 5.34 0 0 1-.49-2.35c0-.89.17-1.68.5-2.36a3.7 3.7 0 0 1 3.44-2.18c.45 0 .9.07 1.34.23a3.34 3.34 0 0 1 2.08 2.08c.22.55.33 1.24.33 2.05v.57h-6.73v-1.16h5.36c0-.5-.1-.93-.3-1.32a2.23 2.23 0 0 0-2.08-1.25c-.54 0-1 .14-1.39.4-.39.26-.68.6-.9 1.02a3 3 0 0 0-.3 1.36v.77c0 .66.1 1.22.34 1.68.23.45.55.8.96 1.03.4.24.88.36 1.42.36.35 0 .67-.05.96-.15a1.94 1.94 0 0 0 1.22-1.22l1.3.37a2.99 2.99 0 0 1-1.89 1.93c-.46.18-1 .27-1.59.27Zm11.84-6.95-1.2.34a2.2 2.2 0 0 0-.34-.59 1.6 1.6 0 0 0-.6-.47 2.15 2.15 0 0 0-.95-.2c-.54 0-.98.13-1.34.38-.35.24-.53.55-.53.92 0 .34.13.6.37.8.24.19.62.35 1.13.48l1.3.31c.78.2 1.36.48 1.74.87.39.39.58.89.58 1.5 0 .5-.15.95-.44 1.34-.28.4-.68.7-1.19.93-.5.23-1.1.34-1.78.34-.9 0-1.63-.2-2.21-.58a2.57 2.57 0 0 1-1.11-1.7l1.27-.3c.12.46.35.81.69 1.05.34.23.79.35 1.34.35a2.5 2.5 0 0 0 1.48-.4c.38-.27.56-.59.56-.96 0-.3-.1-.56-.32-.77-.21-.2-.53-.36-.97-.46l-1.46-.34a3.47 3.47 0 0 1-1.76-.88c-.37-.4-.56-.9-.56-1.5 0-.5.14-.94.42-1.31.28-.38.66-.68 1.14-.9a4 4 0 0 1 1.65-.32c.86 0 1.54.19 2.03.57.5.38.85.88 1.06 1.5Z" fill="#757575"/><rect x="190" y="60.5" width="292" height="39" rx="3.5" stroke="#545454"/><path d="M198.87 37.82V48h-1.64l-4.8-6.94h-.08V48h-1.85V37.82h1.66l4.79 6.94h.09v-6.94h1.83ZM203 48.15c-.49 0-.92-.08-1.3-.25a2.13 2.13 0 0 1-.92-.78 2.27 2.27 0 0 1-.34-1.26c0-.43.08-.79.24-1.07.16-.28.38-.5.65-.68.28-.17.59-.3.93-.38.35-.09.71-.15 1.08-.2l1.1-.12c.27-.04.47-.1.6-.18.13-.08.2-.2.2-.38v-.03c0-.37-.12-.66-.34-.87-.22-.2-.54-.3-.96-.3-.44 0-.8.09-1.05.28-.25.2-.43.42-.52.68l-1.68-.24a2.69 2.69 0 0 1 1.78-1.87 4.76 4.76 0 0 1 2.56-.1c.36.08.7.22 1 .42.3.2.54.46.72.8.19.34.28.76.28 1.27V48h-1.73v-1.05h-.06a2.19 2.19 0 0 1-1.2 1.04c-.3.1-.64.16-1.04.16Zm.47-1.32a2 2 0 0 0 .94-.21c.26-.15.47-.34.6-.58.15-.24.23-.5.23-.78v-.9a.84.84 0 0 1-.3.13 13.77 13.77 0 0 1-1.36.24c-.26.04-.5.1-.72.18-.2.09-.38.2-.5.35a.85.85 0 0 0-.18.57c0 .33.12.58.36.75.24.17.55.25.93.25Zm5.37 1.17v-7.64h1.72v1.3h.09c.16-.44.42-.78.8-1.02.36-.25.8-.38 1.3-.38.53 0 .96.13 1.32.38.35.25.6.59.75 1.02h.08c.17-.42.45-.76.86-1.01.4-.26.88-.39 1.43-.39.7 0 1.28.23 1.72.67.45.44.67 1.1.67 1.94V48h-1.8v-4.85c0-.47-.13-.82-.38-1.04a1.35 1.35 0 0 0-.93-.33c-.43 0-.77.14-1.02.4a1.5 1.5 0 0 0-.36 1.06V48h-1.77v-4.92c0-.4-.11-.71-.35-.95a1.25 1.25 0 0 0-.93-.35 1.36 1.36 0 0 0-1.21.75 1.7 1.7 0 0 0-.19.83V48h-1.8Zm15.95.15c-.77 0-1.43-.16-1.99-.48a3.23 3.23 0 0 1-1.28-1.36 4.55 4.55 0 0 1-.44-2.08c0-.79.15-1.48.44-2.07a3.38 3.38 0 0 1 3.17-1.9c.47 0 .92.08 1.33.23a3 3 0 0 1 1.12.7c.32.31.58.71.76 1.2.19.49.28 1.06.28 1.73v.55h-6.26v-1.2h4.54c0-.35-.08-.66-.23-.93a1.63 1.63 0 0 0-.6-.64 1.72 1.72 0 0 0-.91-.23 1.8 1.8 0 0 0-1.62.96 2 2 0 0 0-.24.94v1.06c0 .44.08.82.24 1.14a1.8 1.8 0 0 0 1.71.98c.26 0 .5-.04.71-.11a1.55 1.55 0 0 0 .91-.88l1.68.2c-.1.44-.31.82-.61 1.16-.3.32-.67.58-1.13.76-.46.18-1 .27-1.58.27Z" fill="#333"/></svg>
